images/icons/facebook.svg

<svg width="9" height="13" viewBox="0 0 9 13" fill="none" xmlns="http://www.w3.org/2000/svg">
<path d="M5.51359 12.9746H3.10677C2.70476 12.9746 2.37773 12.6917 2.37773 12.344V7.64833H0.973546C0.571531 7.64833 0.244507 7.36537 0.244507 7.01773V5.00562C0.244507 4.65789 0.571531 4.37502 0.973546 4.37502H2.37773V3.36743C2.37773 2.36837 2.74042 1.51838 3.42646 0.9095C4.11559 0.297844 5.07866 -0.0253906 6.21155 -0.0253906L8.04711 -0.0228119C8.44843 -0.0222168 8.77489 0.260651 8.77489 0.607788V2.47598C8.77489 2.82372 8.44798 3.10658 8.04608 3.10658L6.81022 3.10698C6.43331 3.10698 6.33734 3.17234 6.31681 3.19238C6.28299 3.2256 6.24274 3.31953 6.24274 3.57889V4.37493H7.9532C8.08197 4.37493 8.20672 4.4024 8.31393 4.45417C8.54521 4.56595 8.689 4.77731 8.689 5.00572L8.68808 7.01783C8.68808 7.36537 8.36106 7.64823 7.95904 7.64823H6.24274V12.344C6.24274 12.6917 5.9156 12.9746 5.51359 12.9746ZM3.25882 12.2125H5.36154V7.30715C5.36154 7.07496 5.57998 6.88612 5.84829 6.88612H7.807L7.8078 5.13714H5.84818C5.57986 5.13714 5.36154 4.9483 5.36154 4.71611V3.57889C5.36154 3.28114 5.39651 2.94254 5.65634 2.68803C5.9703 2.38037 6.46508 2.34486 6.80999 2.34486L7.8938 2.34447V0.739105L6.21086 0.736725C4.39022 0.736725 3.25882 1.74481 3.25882 3.36743V4.71611C3.25882 4.9482 3.0405 5.13714 2.77218 5.13714H1.12559V6.88612H2.77218C3.0405 6.88612 3.25882 7.07496 3.25882 7.30715V12.2125ZM8.04539 0.739304H8.0455H8.04539Z" fill="#1C2D5A"/>
</svg>

<svg width="9" height="13" fill="none" xmlns="http://www.w3.org/2000/svg"><path d="M5.514 12.975H3.107c-.402 0-.73-.283-.73-.631V7.648H.975c-.402 0-.73-.283-.73-.63V5.006c0-.348.328-.631.73-.631h1.404V3.367c0-.999.362-1.849 1.048-2.458.69-.611 1.653-.934 2.786-.934l1.835.002c.401 0 .728.284.728.63v1.869c0 .348-.327.63-.729.63l-1.236.001c-.377 0-.473.065-.493.085-.034.034-.074.128-.074.387v.796h1.71c.129 0 .254.027.36.08.232.11.376.322.376.55v2.013c0 .347-.328.63-.73.63H6.243v4.696c0 .348-.327.63-.73.63Zm-2.255-.762h2.103V7.307c0-.232.218-.42.486-.42h1.959v-1.75H5.849c-.268 0-.486-.189-.486-.42V3.578c0-.298.035-.636.294-.891.314-.308.81-.343 1.154-.343h1.084V.738L6.21.737c-1.82 0-2.952 1.008-2.952 2.63v1.35c0 .231-.218.42-.487.42H1.126v1.75h1.646c.269 0 .487.188.487.42v4.905ZM8.045.739Z" fill="#1C2D5A"/></svg>
